dist/svgs/close-circle.svg

<!-- Generated by IcoMoon.io -->
<svg version="1.1" xmlns="http://www.w3.org/2000/svg" width="24" height="24" viewBox="0 0 24 24">
<title>close-circle</title>
<path d="M16.7 7.3c-0.4-0.4-1-0.4-1.4 0l-3.3 3.3-3.3-3.3c-0.4-0.4-1-0.4-1.4 0s-0.4 1 0 1.4l3.3 3.3-3.3 3.3c-0.4 0.4-0.4 1 0 1.4 0.2 0.2 0.4 0.3 0.7 0.3s0.5-0.1 0.7-0.3l3.3-3.3 3.3 3.3c0.2 0.2 0.4 0.3 0.7 0.3s0.5-0.1 0.7-0.3c0.4-0.4 0.4-1 0-1.4l-3.3-3.3 3.3-3.3c0.4-0.4 0.4-1 0-1.4z"></path>
<path d="M12 0c-6.6 0-12 5.4-12 12s5.4 12 12 12 12-5.4 12-12-5.4-12-12-12zM12 22c-5.5 0-10-4.5-10-10s4.5-10 10-10 10 4.5 10 10-4.5 10-10 10z"></path>
</svg>

<svg xmlns="http://www.w3.org/2000/svg" width="24" height="24"><path d="M16.7 7.3c-.4-.4-1-.4-1.4 0L12 10.6 8.7 7.3c-.4-.4-1-.4-1.4 0s-.4 1 0 1.4l3.3 3.3-3.3 3.3c-.4.4-.4 1 0 1.4.2.2.4.3.7.3s.5-.1.7-.3l3.3-3.3 3.3 3.3c.2.2.4.3.7.3s.5-.1.7-.3c.4-.4.4-1 0-1.4L13.4 12l3.3-3.3c.4-.4.4-1 0-1.4z"/><path d="M12 0C5.4 0 0 5.4 0 12s5.4 12 12 12 12-5.4 12-12S18.6 0 12 0zm0 22C6.5 22 2 17.5 2 12S6.5 2 12 2s10 4.5 10 10-4.5 10-10 10z"/></svg>
